src/assets/images/phoneProcess.inline.svg

<?xml version="1.0" encoding="UTF-8"?>
<svg fill="none" viewBox="0 0 536 483" xmlns="http://www.w3.org/2000/svg">
<g clip-path="url(#a)">
<path d="m94.449 349.67c-3.042 2.981-4.7832 7.04-4.845 11.296-0.0619 4.256 1.5607 8.365 4.5149 11.433l102.22 105.68c1.486 1.537 3.264 2.763 5.229 3.607 1.966 0.844 4.079 1.289 6.218 1.31s4.261-0.384 6.242-1.19c1.982-0.806 3.783-1.998 5.298-3.505l311.92-310.23c1.704-1.695 3.007-3.749 3.814-6.012 0.807-2.262 1.097-4.676 0.85-7.066-0.247-2.389-1.026-4.693-2.279-6.743s-2.949-3.794-4.964-5.105l-122.65-79.8c-3.068-2.0164-6.735-2.9205-10.389-2.5611-3.655 0.3593-7.075 1.9602-9.69 4.5353l-291.49 284.35z" fill="#3F3D56"/>
<path d="m533.39 147.86c-0.619 0.95-1.336 1.831-2.138 2.631l-311.19 316.09c-1.516 1.508-3.317 2.699-5.298 3.505-1.981 0.807-4.103 1.211-6.242 1.19-2.139-0.02-4.253-0.466-6.218-1.31s-3.743-2.07-5.229-3.607l-104.42-110.08c-0.7115-0.738-1.3505-1.543-1.9082-2.403-4.0044 6.154-1.9335 13.033 3.375 18.52l102.22 105.68c1.487 1.536 3.264 2.762 5.23 3.607 1.965 0.844 4.078 1.289 6.218 1.31 2.139 0.02 4.261-0.384 6.242-1.19s3.782-1.998 5.298-3.506l311.92-310.23c2.625-2.613 4.27-6.047 4.659-9.728 0.39-3.681-0.5-7.383-2.521-10.486z" fill="#6DD5ED"/>
<path d="m504.51 151.69-12.694-8.084c1.337 2.38 1.828 5.142 1.393 7.836s-1.77 5.162-3.789 7.001c-2.018 1.84-4.6 2.942-7.326 3.128s-5.434-0.555-7.684-2.103l-82.141-56.409c-1.867-1.28-3.337-3.0587-4.241-5.1327-0.904-2.0739-1.207-4.36-0.874-6.5976 0.333-2.2375 1.289-4.3366 2.758-6.0579s3.393-2.9956 5.553-3.6777l-6.54-4.165c-0.848-0.5404-1.857-0.774-2.857-0.6617-1 0.1122-1.931 0.5635-2.639 1.2785l-276.33 271.25c-0.412 0.417-0.737 0.912-0.955 1.455-0.218 0.544-0.325 1.126-0.314 1.712 0.01 0.586 0.138 1.164 0.375 1.7 0.237 0.535 0.579 1.019 1.006 1.421l100.36 97.676c0.832 0.784 1.937 1.213 3.08 1.197s2.235-0.476 3.045-1.282l291.56-294.67c0.467-0.465 0.824-1.029 1.043-1.65 0.22-0.621 0.297-1.283 0.226-1.937-0.071-0.655-0.289-1.285-0.637-1.845-0.347-0.559-0.817-1.034-1.372-1.388z" fill="#fff"/>
<path d="m369.65 103.72-184.07 185.68 84.769 79.836 201.63-198.98-102.33-66.53z" fill="#E6E6E6"/>
<path d="m464.14 219.36c0.559 0.532 1.302 0.83 2.074 0.83 0.773 0 1.516-0.298 2.075-0.83l17.632-17.613c0.549-0.55 0.857-1.295 0.857-2.072s-0.308-1.522-0.857-2.072c-0.559-0.533-1.302-0.83-2.074-0.83-0.773 0-1.516 0.297-2.075 0.83l-17.632 17.613c-0.549 0.55-0.858 1.295-0.858 2.072 0 0.776 0.309 1.521 0.858 2.072z" fill="#3F3D56"/>
<path d="m434.44 249.03c0.551 0.549 1.297 0.856 2.075 0.856 0.777 0 1.523-0.307 2.074-0.856l17.633-17.613c0.549-0.549 0.858-1.295 0.857-2.072 0-0.776-0.309-1.521-0.859-2.071-0.55-0.549-1.296-0.858-2.073-0.858-0.778 0-1.524 0.308-2.074 0.857l-17.633 17.613c-0.549 0.55-0.857 1.295-0.857 2.072s0.308 1.522 0.857 2.072z" fill="#3F3D56"/>
<path d="m187.54 377.71c10.937 0 19.802-8.856 19.802-19.78s-8.865-19.78-19.802-19.78c-10.936 0-19.801 8.856-19.801 19.78s8.865 19.78 19.801 19.78z" fill="#6DD5ED"/>
<path d="m332.02 187.01h-209.32v41.281h209.32v-41.281z" fill="#E6E6E6"/>
<path d="m127.16 223.83h200.39v-32.367h-200.39v32.367z" fill="#fff"/>
<path d="m5.1338 0c-1.3611 0.0015284-2.666 0.5423-3.6285 1.5037-0.96244 0.96138-1.5038 2.2648-1.5053 3.6244v216.85c0.0016061 1.359 0.54296 2.663 1.5054 3.624 0.96244 0.961 2.2674 1.502 3.6284 1.504h318.3c1.361-2e-3 2.665-0.543 3.628-1.504 0.962-0.961 1.504-2.265 1.505-3.624v-216.85c-1e-3 -1.3596-0.543-2.663-1.505-3.6244-0.962-0.96136-2.267-1.5022-3.628-1.5037h-318.3z" fill="#E6E6E6"/>
<path d="m12.468 7.3262c-1.3611 0.00152-2.6661 0.54229-3.6285 1.5037-0.96245 0.96137-1.5039 2.2649-1.5054 3.6245v202.19c0.00153 1.359 0.54295 2.663 1.5054 3.624 0.96244 0.962 2.2674 1.502 3.6285 1.504h303.63c1.361-2e-3 2.666-0.542 3.628-1.504 0.963-0.961 1.504-2.265 1.505-3.624v-202.19c-1e-3 -1.3596-0.542-2.663-1.505-3.6244-0.962-0.96136-2.267-1.5022-3.628-1.5037h-303.63z" fill="#fff"/>
<path d="m248.68 82.791 15.293 5.027 35.174-57.811v145.7l-269.16 0.081 16.058-11.73 63.466-10.055 38.997-10.054 21.411 8.461 29.056-41.136 19.881 4.189 29.821-32.676z" fill="#6DD5ED" opacity=".2"/>
<path d="m31.82 175.42c-0.389 0-0.7621-0.154-1.0371-0.429-0.2751-0.275-0.4297-0.647-0.4297-1.036 0-0.388 0.1546-0.761 0.4297-1.036 0.275-0.275 0.6481-0.429 1.0371-0.429 67.777 0 132.42-13.556 182.01-38.17 46.503-23.082 76.137-54.381 81.302-85.874 0.031-0.1901 0.099-0.3724 0.2-0.5362 0.102-0.1639 0.235-0.3062 0.391-0.4187 0.157-0.1126 0.334-0.1932 0.522-0.2373 0.187-0.044 0.382-0.0507 0.572-0.0196 0.19 0.0312 0.373 0.0995 0.537 0.2011 0.163 0.1016 0.306 0.2344 0.418 0.391 0.112 0.1565 0.193 0.3337 0.237 0.5213 0.043 0.1876 0.05 0.382 0.018 0.572-2.683 16.359-11.393 32.406-25.886 47.696-14.294 15.08-33.473 28.648-57.005 40.328-49.99 24.812-115.09 38.476-183.31 38.476z" fill="#6DD5ED"/>
<path d="m30.07 175.72v-138.26h1.4668v136.79h278.69v1.465h-280.16z" fill="#E6E6E6"/>
</g>
<defs>
<clipPath id="a">
<rect width="536" height="483" fill="#fff"/>
</clipPath>
</defs>
</svg>

<svg width="536" height="483" viewBox="0 0 536 483" fill="none" xmlns="http://www.w3.org/2000/svg">
<g clip-path="url(#clip0)">
<path d="M94.4488 349.672C91.4068 352.653 89.6656 356.712 89.6038 360.968C89.5419 365.224 91.1645 369.333 94.1187 372.401L196.34 478.082C197.826 479.619 199.604 480.845 201.569 481.689C203.535 482.533 205.648 482.978 207.787 482.999C209.926 483.02 212.048 482.615 214.029 481.809C216.011 481.003 217.812 479.811 219.327 478.304L531.25 168.076C532.954 166.381 534.257 164.327 535.064 162.064C535.871 159.802 536.161 157.388 535.914 154.998C535.667 152.609 534.888 150.305 533.635 148.255C532.382 146.205 530.686 144.461 528.671 143.15L406.017 63.3499C402.949 61.3335 399.282 60.4294 395.628 60.7888C391.973 61.1481 388.553 62.749 385.938 65.3241L94.4488 349.672Z" fill="#3F3D56"/>
<path d="M533.389 147.863C532.77 148.813 532.053 149.694 531.251 150.494L220.061 466.583C218.545 468.091 216.744 469.282 214.763 470.088C212.782 470.895 210.66 471.299 208.521 471.278C206.382 471.258 204.268 470.812 202.303 469.968C200.338 469.124 198.56 467.898 197.074 466.361L92.6522 356.284C91.9407 355.546 91.3017 354.741 90.744 353.881C86.7396 360.035 88.8105 366.914 94.119 372.401L196.34 478.083C197.827 479.619 199.604 480.845 201.57 481.69C203.535 482.534 205.648 482.979 207.788 483C209.927 483.02 212.049 482.616 214.03 481.81C216.011 481.004 217.812 479.812 219.328 478.304L531.251 168.077C533.876 165.464 535.521 162.03 535.91 158.349C536.3 154.668 535.41 150.966 533.389 147.863Z" fill="#6DD5ED"/>
<path d="M504.509 151.686L491.815 143.602C493.152 145.982 493.643 148.744 493.208 151.438C492.773 154.132 491.438 156.6 489.419 158.439C487.401 160.279 484.819 161.381 482.093 161.567C479.367 161.753 476.659 161.012 474.409 159.464L392.268 103.055C390.401 101.775 388.931 99.9963 388.027 97.9223C387.123 95.8484 386.82 93.5623 387.153 91.3247C387.486 89.0872 388.442 86.9881 389.911 85.2668C391.38 83.5455 393.304 82.2712 395.464 81.5891L388.924 77.4241C388.076 76.8837 387.067 76.6501 386.067 76.7624C385.067 76.8746 384.136 77.3259 383.428 78.0409L107.101 349.295C106.689 349.712 106.364 350.207 106.146 350.75C105.928 351.294 105.821 351.876 105.832 352.462C105.842 353.048 105.97 353.626 106.207 354.162C106.444 354.697 106.786 355.181 107.213 355.583L207.568 453.259C208.4 454.043 209.505 454.472 210.648 454.456C211.791 454.44 212.883 453.98 213.693 453.174L505.249 158.506C505.716 158.041 506.073 157.477 506.292 156.856C506.512 156.235 506.589 155.573 506.518 154.919C506.447 154.264 506.229 153.634 505.881 153.074C505.534 152.515 505.064 152.04 504.509 151.686Z" fill="white"/>
<path d="M369.653 103.72L185.584 289.399L270.353 369.235L471.98 170.25L369.653 103.72Z" fill="#E6E6E6"/>
<path d="M464.144 219.358C464.703 219.89 465.446 220.188 466.218 220.188C466.991 220.188 467.734 219.89 468.293 219.358L485.925 201.745C486.474 201.195 486.782 200.45 486.782 199.673C486.782 198.896 486.474 198.151 485.925 197.601C485.366 197.068 484.623 196.771 483.851 196.771C483.078 196.771 482.335 197.068 481.776 197.601L464.144 215.214C463.595 215.764 463.286 216.509 463.286 217.286C463.286 218.062 463.595 218.807 464.144 219.358Z" fill="#3F3D56"/>
<path d="M434.441 249.028C434.992 249.577 435.738 249.884 436.516 249.884C437.293 249.884 438.039 249.577 438.59 249.028L456.223 231.415C456.772 230.866 457.081 230.12 457.08 229.343C457.08 228.567 456.771 227.822 456.221 227.272C455.671 226.723 454.925 226.414 454.148 226.414C453.37 226.414 452.624 226.722 452.074 227.271L434.441 244.884C433.892 245.434 433.584 246.179 433.584 246.956C433.584 247.733 433.892 248.478 434.441 249.028Z" fill="#3F3D56"/>
<path d="M187.542 377.707C198.479 377.707 207.344 368.851 207.344 357.927C207.344 347.003 198.479 338.147 187.542 338.147C176.606 338.147 167.741 347.003 167.741 357.927C167.741 368.851 176.606 377.707 187.542 377.707Z" fill="#6DD5ED"/>
<path d="M332.022 187.007H122.703V228.288H332.022V187.007Z" fill="#E6E6E6"/>
<path d="M127.165 223.831H327.559V191.464H127.165V223.831Z" fill="white"/>
<path d="M5.13378 0C3.77269 0.00152843 2.46775 0.542299 1.50531 1.50367C0.542869 2.46505 0.00152792 3.76851 0 5.1281V221.974C0.00160608 223.333 0.54296 224.637 1.50539 225.598C2.46783 226.559 3.77275 227.1 5.13378 227.102H323.429C324.79 227.1 326.094 226.559 327.057 225.598C328.019 224.637 328.561 223.333 328.562 221.974V5.1281C328.561 3.76853 328.019 2.4651 327.057 1.50374C326.095 0.542375 324.79 0.0015884 323.429 0H5.13378Z" fill="#E6E6E6"/>
<path d="M12.4679 7.32617C11.1068 7.32769 9.80182 7.86846 8.83938 8.82984C7.87693 9.79121 7.33551 11.0947 7.33398 12.4543V214.648C7.33551 216.007 7.87693 217.311 8.83938 218.272C9.80182 219.234 11.1068 219.774 12.4679 219.776H316.095C317.456 219.774 318.761 219.234 319.723 218.272C320.686 217.311 321.227 216.007 321.228 214.648V12.4543C321.227 11.0947 320.686 9.79127 319.723 8.82991C318.761 7.86855 317.456 7.32775 316.095 7.32617H12.4679Z" fill="white"/>
<path opacity="0.2" d="M248.676 82.7912L263.969 87.8182L299.143 30.0068V175.711L29.9858 175.792L46.0436 164.062L109.51 154.007L148.507 143.953L169.918 152.414L198.974 111.278L218.855 115.467L248.676 82.7912Z" fill="#6DD5ED"/>
<path d="M31.8198 175.425C31.4308 175.425 31.0577 175.271 30.7827 174.996C30.5076 174.721 30.353 174.349 30.353 173.96C30.353 173.572 30.5076 173.199 30.7827 172.924C31.0577 172.649 31.4308 172.495 31.8198 172.495C99.5969 172.495 164.235 158.939 213.827 134.325C260.33 111.243 289.964 79.9437 295.129 48.451C295.16 48.2609 295.228 48.0786 295.329 47.9148C295.431 47.7509 295.564 47.6086 295.72 47.4961C295.877 47.3835 296.054 47.3029 296.242 47.2588C296.429 47.2148 296.624 47.2081 296.814 47.2392C297.004 47.2704 297.187 47.3387 297.351 47.4403C297.514 47.5419 297.657 47.6747 297.769 47.8313C297.881 47.9878 297.962 48.165 298.006 48.3526C298.049 48.5402 298.056 48.7346 298.024 48.9246C295.341 65.2837 286.631 81.3308 272.138 96.6207C257.844 111.701 238.665 125.269 215.133 136.949C165.143 161.761 100.041 175.425 31.8198 175.425Z" fill="#6DD5ED"/>
<path d="M30.0698 175.721V37.4614H31.5366V174.256H310.228V175.721H30.0698Z" fill="#E6E6E6"/>
</g>
<defs>
<clipPath id="clip0">
<rect width="536" height="483" fill="white"/>
</clipPath>
</defs>
</svg>
